src/main/resources/icons/JavaUltimateIcons/icons/lang/groovyLanguage.svg

<svg xmlns="http://www.w3.org/2000/svg" width="16" height="16" viewBox="0 0 16 16">
  <g fill="none" fill-rule="evenodd">
    <path fill="#62B543" fill-opacity=".6" d="M8,15 C4.134,15 1,11.866 1,8 C1,4.134 4.134,1 8,1 C11.866,1 15,4.134 15,8 C15,11.866 11.866,15 8,15 Z"/>
    <path fill="#231F20" fill-opacity=".7" d="M8.10388729,11 C6.28897017,11 5.0956,9.70718232 5.0956,8.01657459 L5.0956,8 C5.0956,6.37569061 6.33869392,5 8.08731271,5 C9.09836243,5 9.71990939,5.28176796 10.3165945,5.78729282 L9.67018564,6.55801105 C9.22267182,6.18508287 8.7834453,5.94475138 8.04587624,5.94475138 C6.97681547,5.94475138 6.16466077,6.87292818 6.16466077,7.98342541 L6.16466077,8 C6.16466077,9.19337017 6.95195359,10.0718232 8.13703646,10.0718232 C8.68399779,10.0718232 9.18123536,9.89779006 9.53758895,9.63259669 L9.53758895,8.55524862 L8.05416354,8.55524862 L8.05416354,7.66022099 L10.5237768,7.66022099 L10.5237768,10.0966851 C9.95195359,10.5856354 9.1315116,11 8.10388729,11 Z"/>
  </g>
</svg>

<svg xmlns="http://www.w3.org/2000/svg" width="16" height="16" viewBox="0 0 16 16"><rect id="frame" width="16" height="16" fill="none"/><g fill="none" fill-rule="evenodd"><path fill="#62B543" fill-opacity=".6" d="M8 15A7 7 0 1 1 8 1a7 7 0 0 1 0 14z"/><path fill="#231F20" fill-opacity=".7" d="M8.104 11c-1.815 0-3.008-1.293-3.008-2.983V8c0-1.624 1.243-3 2.991-3 1.011 0 1.633.282 2.23.787l-.647.771c-.447-.373-.887-.613-1.624-.613-1.07 0-1.881.928-1.881 2.038V8c0 1.193.787 2.072 1.972 2.072.547 0 1.044-.174 1.4-.44V8.556H8.055V7.66h2.47v2.437a3.699 3.699 0 0 1-2.42.903z"/></g></svg>
